flaticon/pins-and-locations/placeholder-9.svg

<svg xmlns="http://www.w3.org/2000/svg" width="32" height="32" viewBox="0 0 24 24">
    <path d="M 13.359375 5.160156 C 12.839844 5.160156 12.359375 5.480469 11.960938 6 C 11.601562 5.519531 11.039062 5.160156 10.441406 5.160156 C 9.398438 5.160156 8.601562 5.960938 8.480469 7.078125 C 8.480469 7.199219 8.480469 7.441406 8.558594 7.839844 C 8.71875 8.441406 9.039062 9 9.519531 9.398438 L 12 11.761719 L 14.359375 9.398438 C 14.839844 8.960938 15.160156 8.441406 15.320312 7.839844 C 15.441406 7.441406 15.398438 7.160156 15.398438 7.078125 C 15.320312 5.960938 14.441406 5.160156 13.359375 5.160156 Z M 14.601562 7.640625 C 14.480469 8.078125 14.238281 8.480469 13.839844 8.800781 L 12 10.640625 L 10.039062 8.800781 C 9.679688 8.480469 9.441406 8.078125 9.320312 7.640625 C 9.28125 7.359375 9.28125 7.199219 9.28125 7.199219 L 9.320312 7.160156 C 9.359375 6.558594 9.761719 5.960938 10.480469 5.960938 C 10.921875 5.960938 11.441406 6.441406 11.640625 6.921875 L 12 7.761719 L 12.359375 6.921875 C 12.441406 6.679688 12.800781 5.960938 13.359375 5.960938 C 14.039062 5.960938 14.558594 6.480469 14.640625 7.199219 C 14.640625 7.199219 14.679688 7.359375 14.601562 7.640625 Z M 14.601562 7.640625"/>
    <path d="M 12 0 C 7.601562 0 4 3.601562 4 8 C 4 10.160156 4.640625 11.480469 5.558594 13.28125 C 5.679688 13.558594 5.839844 13.839844 6 14.160156 C 8.238281 18.761719 11.640625 23.761719 11.679688 23.839844 C 11.761719 23.921875 11.878906 24 12 24 C 12.121094 24 12.238281 23.921875 12.320312 23.800781 C 12.359375 23.761719 15.761719 18.761719 18 14.160156 C 18.160156 13.839844 18.28125 13.558594 18.441406 13.28125 C 19.359375 11.480469 20 10.160156 20 8 C 20 3.601562 16.398438 0 12 0 Z M 17.71875 12.878906 C 17.601562 13.199219 17.441406 13.480469 17.28125 13.800781 C 15.480469 17.480469 12.921875 21.480469 12 22.839844 C 11.078125 21.480469 8.519531 17.519531 6.71875 13.800781 C 6.558594 13.519531 6.441406 13.199219 6.28125 12.921875 C 5.398438 11.160156 4.800781 9.960938 4.800781 8 C 4.800781 4.039062 8.039062 0.800781 12 0.800781 C 15.960938 0.800781 19.199219 4.039062 19.199219 8 C 19.199219 9.960938 18.601562 11.160156 17.71875 12.878906 Z M 17.71875 12.878906"/>
</svg>

<svg xmlns="http://www.w3.org/2000/svg" width="32" height="32" viewBox="0 0 24 24">
    <path d="M13.36 5.16c-.52 0-1 .32-1.4.84-.358-.48-.92-.84-1.519-.84-1.043 0-1.84.8-1.96 1.918 0 .121 0 .363.078.762.16.601.48 1.16.96 1.558L12 11.762l2.36-2.364c.48-.437.8-.957.96-1.558.121-.399.078-.68.078-.762-.078-1.117-.957-1.918-2.039-1.918zm1.242 2.48c-.122.438-.364.84-.762 1.16L12 10.64 10.04 8.8a2.398 2.398 0 0 1-.72-1.16c-.039-.28-.039-.44-.039-.44l.04-.04c.038-.601.44-1.2 1.16-1.2.44 0 .96.481 1.16.962l.359.84.36-.84c.081-.242.44-.961 1-.961.68 0 1.199.52 1.28 1.238 0 0 .04.16-.038.442zm0 0"/>
    <path d="M12 0C7.602 0 4 3.602 4 8c0 2.16.64 3.48 1.559 5.281.12.278.28.559.441.88 2.238 4.6 5.64 9.6 5.68 9.679.082.082.199.16.32.16s.238-.078.32-.2c.04-.038 3.442-5.038 5.68-9.64.16-.32.281-.601.441-.879C19.36 11.481 20 10.161 20 8c0-4.398-3.602-8-8-8zm5.719 12.879c-.117.32-.278.601-.438.922-1.8 3.68-4.36 7.68-5.281 9.039-.922-1.36-3.48-5.32-5.281-9.04-.16-.28-.278-.6-.438-.878C5.398 11.16 4.801 9.96 4.801 8 4.8 4.04 8.039.8 12 .8c3.96 0 7.2 3.24 7.2 7.2 0 1.96-.598 3.16-1.481 4.879zm0 0"/>
</svg>
